icons/communication/message-search-alt-24.svg

<svg width="24" height="24" viewBox="0 0 24 24" fill="none" xmlns="http://www.w3.org/2000/svg">
<path fill-rule="evenodd" clip-rule="evenodd" d="M14 17.25C14 15.1789 15.6789 13.5 17.75 13.5C19.8211 13.5 21.5 15.1789 21.5 17.25C21.5 18.1427 21.188 18.9626 20.6672 19.6066L22.7803 21.7197C23.0732 22.0126 23.0732 22.4874 22.7803 22.7803C22.4874 23.0732 22.0126 23.0732 21.7197 22.7803L19.5045 20.5651C18.981 20.8427 18.3838 21 17.75 21C15.6789 21 14 19.3211 14 17.25ZM17.75 15C16.5074 15 15.5 16.0074 15.5 17.25C15.5 18.4926 16.5074 19.5 17.75 19.5C18.9926 19.5 20 18.4926 20 17.25C20 16.0074 18.9926 15 17.75 15Z" fill="black"/>
<path d="M12.5 3.5C8.08173 3.5 4.50001 7.08172 4.50001 11.5C4.50001 12.7385 4.78091 13.9092 5.28177 14.9539C5.39825 15.1969 5.37227 15.4713 5.23708 15.6828L3.80161 19.0948L8.34898 18.5132C8.48487 18.4958 8.61691 18.516 8.73469 18.5656C8.75906 18.5752 8.78317 18.5862 8.80691 18.5986C9.1186 18.7611 9.44235 18.9037 9.77652 19.0247C10.1745 19.1687 10.4178 19.5893 10.2991 19.9955C10.1855 20.3839 9.78254 20.6145 9.40009 20.4825C9.02686 20.3537 8.6641 20.2023 8.3135 20.03L3.13105 20.6928C2.36666 20.7906 1.7836 20.0234 2.08244 19.3131L3.78057 15.2767C3.27821 14.1184 3.00001 12.8408 3.00001 11.5C3.00001 6.25329 7.2533 2 12.5 2C17.4943 2 21.5885 5.85392 21.9708 10.7501C22.0031 11.163 21.6642 11.5 21.25 11.5C20.8358 11.5 20.5037 11.1631 20.4654 10.7507C20.0876 6.68377 16.6656 3.5 12.5 3.5Z" fill="black"/>
</svg>

<svg xmlns="http://www.w3.org/2000/svg" width="24" height="24"><path fill-rule="evenodd" d="M14 17.25a3.75 3.75 0 116.667 2.357l2.113 2.113a.75.75 0 11-1.06 1.06l-2.215-2.215A3.75 3.75 0 0114 17.25zM17.75 15a2.25 2.25 0 100 4.5 2.25 2.25 0 000-4.5z"/><path d="M12.5 3.5a8 8 0 00-7.218 11.454.75.75 0 01-.045.729l-1.435 3.412 4.547-.582a.746.746 0 01.458.086c.312.162.635.305.97.426.398.144.64.564.522.97-.114.389-.516.62-.899.488a9.461 9.461 0 01-1.087-.453l-5.182.663a1 1 0 01-1.049-1.38l1.699-4.036A9.5 9.5 0 0112.5 2c4.993 0 9.087 3.854 9.47 8.75.032.413-.307.75-.721.75s-.746-.337-.785-.75A8 8 0 0012.5 3.5z"/></svg>
